X: 20
T: Missa Se la face ay pale / Agnus Dei
N: Derived from Duf1005e-Missa_Se_la_face_ay_pale-Agnus.krn
C: Guillaume Du Fay
%%abc-version 2.0
%%abcx-abcm2ps-target-version 5.9.1 (29 Sep 2008)
%%abc-creator hum2abc beta
%%abcx-conversion-date 2019/02/16 20:31:47
%%abc-edited-by Jesse Rodin
%%abc-edited-by Planchart/Rodin
%%abcx-initial-encoding-date 2013/11/21/
%%humdrum-veritas 485764646
%%humdrum-veritas-data 1863903783
%%linebreak <none>
%%barnumbers 0
L: 1/4
M: 3/1
Q: 1/2=120
%%staves [1 2 3 4]
V: 1 clef=treble
V: 2 clef=treble-8
V: 3 clef=treble-8
V: 4 clef=bass
K: C
[V:1] c6B2A4 | 
[V:2] c12 | 
[V:3] z12 | 
[V:4] z12 | 
[V:1] G4c6B2 | 
[V:2] c6B2A4 | 
[V:3] z12 | 
[V:4] z12 | 
[V:1] B4A2G2E4 | 
[V:2] G4c8 | 
[V:3] z12 | 
[V:4] z12 | 
[V:1] D4z4G4- | 
[V:2] B8z4 | 
[V:3] z12 | 
[V:4] z12 | 
[V:1] G4A4G2c2 | 
[V:2] c6d2e4 | 
[V:3] z12 | 
[V:4] z12 | 
[V:1] d2e3cc4B2 | 
[V:2] f2g2c2e2d4 | 
[V:3] z12 | 
[V:4] z12 | 
[V:1] c4z4c4- | 
[V:2] c4e6d2 | 
[V:3] c12- | 
[V:4] C8A,4 | 
[V:1] c2A3GA2E2F2 | 
[V:2] f6e2c4 | 
[V:3] c4c8 | 
[V:4] F,8A,4 | 
[V:1] G12- | 
[V:2] d4e8 | 
[V:3] B12- | 
[V:4] G,4E,8 | 
[V:1] G4A4F4 | 
[V:2] e4f6d2 | 
[V:3] B4A8 | 
[V:4] G,4F,4D,4 | 
[V:1] G6A2B4 | 
[V:2] e4d4g4 | 
[V:3] c4d4e4- | 
[V:4] C,4G,8 | 
[V:1] c6A2c2B2 | 
[V:2] c8z4 | 
[V:3] e4f8 | 
[V:4] A,4F,4A,2B,2 | 
[V:1] G4c4d4 | 
[V:2] g12- | 
[V:3] e8d4- | 
[V:4] C8G,4 | 
[V:1] B6c2B2A2 | 
[V:2] g8g4 | 
[V:3] d12 | 
[V:4] G,8G,4 | 
[V:1] c8B4 | 
[V:2] e12 | 
[V:3] c8G4 | 
[V:4] C,6D,2E,4 | 
[V:1] A3GE2F2EE2D | 
[V:2] z12 | 
[V:3] A8B4 | 
[V:4] F,2D,2C,2F,2G,4 | 
[V:1] F4z4A4 | 
[V:2] z4f8 | 
[V:3] c12- | 
[V:4] F,12 | 
[V:1] G4c6d2 | 
[V:2] e6f2g4 | 
[V:3] c4z4z4 | 
[V:4] C,12 | 
[V:1] e6d2c4 | 
[V:2] c12 | 
[V:3] g12- | 
[V:4] z12 | 
[V:1] B12 | 
[V:2] G12 | 
[V:3] g4g8 | 
[V:4] z12 | 
[V:1] z12 | 
[V:2] G4A4G4- | 
[V:3] c12- | 
[V:4] C,4F,4E,4 | 
[V:1] z12 | 
[V:2] G4z2E4F2 | 
[V:3] c4B8 | 
[V:4] C,4G,6F,2 | 
[V:1] z12 | 
[V:2] G2A2B4c4 | 
[V:3] c4d4e4 | 
[V:4] E,4D,4C,4 | 
[V:1] z12 | 
[V:2] d4B6G2 | 
[V:3] f4d8 | 
[V:4] z4G,8 | 
[V:1] E6F2G4 | 
[V:2] G12 | 
[V:3] c12- | 
[V:4] C,12 | 
[V:1] A4F4A2B2 | 
[V:2] z4A2B2c4 | 
[V:3] c4z4z4 | 
[V:4] F,12 | 
[V:1] c4F3EDCC2 | 
[V:2] F8f3e | 
[V:3] a8a4 | 
[V:4] z4z4F,4 | 
[V:1] F3EC4z4 | 
[V:2] dcc2f3ec2d2 | 
[V:3] a8a4 | 
[V:4] F,8A,2B,2 | 
[V:1] c12 | 
[V:2] e8e4 | 
[V:3] g12- | 
[V:4] C8C4 | 
[V:1] B4A2c4d2 | 
[V:2] d2e4f2e2f2 | 
[V:3] g4z4c4 | 
[V:4] G,4A,8 | 
[V:1] B8A4 | 
[V:2] g8c4 | 
[V:3] d4e4f4- | 
[V:4] G,8F,4- | 
[V:1] A6G2G2F2 | 
[V:2] z4z4d4 | 
[V:3] f4d8 | 
[V:4] F,4_B,8 | 
[V:1] A6B2c4 | 
[V:2] e4a2g2f3e | 
[V:3] c8z4 | 
[V:4] A,4F,2G,2A,4 | 
[V:1] d4B6G2 | 
[V:2] g12 | 
[V:3] z4d8 | 
[V:4] G,12 | 
[V:1] G12 | 
[V:2] e12 | 
[V:3] c8G4- | 
[V:4] C,12- | 
[V:1] E12 | 
[V:2] c12 | 
[V:3] G4g4g4 | 
[V:4] C,12 | 
[V:1] C4z2c4B2 | 
[V:2] e6f2g4 | 
[V:3] g4g4c4- | 
[V:4] z12 | 
[V:1] A4G4F2A2- | 
[V:2] z4G4A4 | 
[V:3] c4z4d4 | 
[V:4] F,4E,4D,4 | 
[V:1] A2G2E4D4 | 
[V:2] A4G4g2f2 | 
[V:3] c8_B4- | 
[V:4] F,2E,2C,4G,4 | 
[V:1] G4A2E2^F3E | 
[V:2] d4e4c4 | 
[V:3] B4A8 | 
[V:4] z4C6A,2 | 
[V:1] G4G3FEDD2 | 
[V:2] d4B4G4 | 
[V:3] G8z4 | 
[V:4] B,2C2D4B,4 | 
[V:1] E2C4F4E2 | 
[V:2] g2e2fedcB3A | 
[V:3] z12 | 
[V:4] C4A,2F,2G,4 | 
[V:1] F12 ||  
[V:2] c12 ||  
[V:3] A6B2c4 ||  
[V:4] F,12 ||  
[V:1]  [K:C] [K:clef=treble][M:4/2]c8- | 
[V:2]  [K:C] [K:clef=treble-8][M:4/2]f8- | 
[V:3]  [K:C] [K:clef=treble-8][M:4/2]z8 | 
[V:4]  [K:C] [K:clef=bass][M:4/2]z8 | 
[V:1] c4A4- | 
[V:2] f8 | 
[V:3] z8 | 
[V:4] z8 | 
[V:1] A2G2G2E2 | 
[V:2] c8 | 
[V:3] z8 | 
[V:4] z8 | 
[V:1] F4E4- | 
[V:2] d4c4 | 
[V:3] z8 | 
[V:4] z8 | 
[V:1] E4C4 | 
[V:2] A8 | 
[V:3] z8 | 
[V:4] z8 | 
[V:1] D4E4 | 
[V:2] B4c4- | 
[V:3] z8 | 
[V:4] z8 | 
[V:1] C4c4- | 
[V:2] c8 | 
[V:3] z8 | 
[V:4] z8 | 
[V:1] c2B2A2G2 | 
[V:2] F8 | 
[V:3] z8 | 
[V:4] z8 | 
[V:1] B4G4 | 
[V:2] G8 | 
[V:3] z8 | 
[V:4] z8 | 
[V:1] z4G4 | 
[V:2] E8 | 
[V:3] z8 | 
[V:4] z8 | 
[V:1] E4F2G2- | 
[V:2] c4A2B2 | 
[V:3] z8 | 
[V:4] z8 | 
[V:1] G2C2D2E2 | 
[V:2] c4B2c2- | 
[V:3] z8 | 
[V:4] z8 | 
[V:1] C4z2F2 | 
[V:2] c2e2d4 | 
[V:3] z8 | 
[V:4] z8 | 
[V:1] E2F2GFED | 
[V:2] c2A2B4 | 
[V:3] z8 | 
[V:4] z8 | 
[V:1] C4z4 | 
[V:2] A2c4F2- | 
[V:3] z8 | 
[V:4] z8 | 
[V:1] F4G2A2 | 
[V:2] F2F2E2F2 | 
[V:3] z8 | 
[V:4] z8 | 
[V:1] _B2G4F2 | 
[V:2] G4E2F2- | 
[V:3] z8 | 
[V:4] z8 | 
[V:1] A4=B2c2- | 
[V:2] F2c2d2e2 | 
[V:3] z8 | 
[V:4] z8 | 
[V:1] cBA2G2F2 | 
[V:2] f4e2d2- | 
[V:3] z8 | 
[V:4] z8 | 
[V:1] A3GE2D2 | 
[V:2] d2c4B2 | 
[V:3] z8 | 
[V:4] z8 | 
[V:1] C2F4E2 | 
[V:2] c2A2G4 | 
[V:3] z8 | 
[V:4] z8 | 
[V:1] F4z4 | 
[V:2] F8 | 
[V:3] z8 | 
[V:4] z8 | 
[V:1] c6B2 | 
[V:2] z8 | 
[V:3] z8 | 
[V:4] F,8 | 
[V:1] A4G4 | 
[V:2] z8 | 
[V:3] z8 | 
[V:4] C6B,2 | 
[V:1] F4E3D | 
[V:2] z8 | 
[V:3] z8 | 
[V:4] A,4G,4 | 
[V:1] F2A2G4 | 
[V:2] z8 | 
[V:3] z8 | 
[V:4] F,4E,3D, | 
[V:1] F4_B4 | 
[V:2] z8 | 
[V:3] z8 | 
[V:4] F,2A,2G,4 | 
[V:1] A2F2G4 | 
[V:2] z8 | 
[V:3] z8 | 
[V:4] F,4_B,4 | 
[V:1] F2F4E2 | 
[V:2] z8 | 
[V:3] z8 | 
[V:4] A,2F,2G,4 | 
[V:1] F2z2A2B2 | 
[V:2] z8 | 
[V:3] z8 | 
[V:4] F,4z4 | 
[V:1] c4F4 | 
[V:2] z8 | 
[V:3] z8 | 
[V:4] F,4A,2B,2 | 
[V:1] E2C2D4 | 
[V:2] z8 | 
[V:3] z8 | 
[V:4] C4F,4 | 
[V:1] C4F4 | 
[V:2] z8 | 
[V:3] z8 | 
[V:4] E,2C,2D,4 | 
[V:1] E2C4D2 | 
[V:2] z8 | 
[V:3] z8 | 
[V:4] C,4F,4 | 
[V:1] E3DE2F2 | 
[V:2] z8 | 
[V:3] z8 | 
[V:4] E,2C,4D,2 | 
[V:1] G2C4B,2 | 
[V:2] z8 | 
[V:3] z8 | 
[V:4] E,2F,2D,4 | 
[V:1] C8 | 
[V:2] z8 | 
[V:3] z8 | 
[V:4] C,8- | 
[V:1] z8 | 
[V:2] c6d2 | 
[V:3] z8 | 
[V:4] C,8 | 
[V:1] z8 | 
[V:2] e4f4 | 
[V:3] z8 | 
[V:4] C,4D,2E,2 | 
[V:1] C6D2 | 
[V:2] e4g4- | 
[V:3] z8 | 
[V:4] C,8 | 
[V:1] E4F4 | 
[V:2] g2f2d4 | 
[V:3] z8 | 
[V:4] z8 | 
[V:1] E4G4- | 
[V:2] c6B2 | 
[V:3] z8 | 
[V:4] z8 | 
[V:1] G2F2D4 | 
[V:2] c2d2B4 | 
[V:3] z8 | 
[V:4] z8 | 
[V:1] C8 | 
[V:2] c4G4- | 
[V:3] z8 | 
[V:4] C,6D,2 | 
[V:1] z8 | 
[V:2] G4A4 | 
[V:3] z8 | 
[V:4] E,4F,4 | 
[V:1] z8 | 
[V:2] G2c2B2e2- | 
[V:3] z8 | 
[V:4] E,4G,4- | 
[V:1] z8 | 
[V:2] e2dcB3A | 
[V:3] z8 | 
[V:4] G,2F,2D,4 | 
[V:1] z8 | 
[V:2] c4d2e2- | 
[V:3] z8 | 
[V:4] C,4B,,2C,2- | 
[V:1] z8 | 
[V:2] e2f2d3c | 
[V:3] z8 | 
[V:4] C,2D,2B,,4 | 
[V:1] C4G4 | 
[V:2] e4c4 | 
[V:3] z8 | 
[V:4] C,8- | 
[V:1] E2C4E2 | 
[V:2] g4e2c2- | 
[V:3] z8 | 
[V:4] C,8 | 
[V:1] G2C4E2- | 
[V:2] c2e2f2g2 | 
[V:3] z8 | 
[V:4] z8 | 
[V:1] E2F2G4 | 
[V:2] c2BAG4- | 
[V:3] z8 | 
[V:4] z8 | 
[V:1] z4G4 | 
[V:2] G4c4 | 
[V:3] z8 | 
[V:4] C,8 | 
[V:1] A6B2 | 
[V:2] z4f4 | 
[V:3] z8 | 
[V:4] F,6G,2 | 
[V:1] c4d4 | 
[V:2] e4d3c | 
[V:3] z8 | 
[V:4] A,4B,4 | 
[V:1] e2c2c4- | 
[V:2] A8 | 
[V:3] z8 | 
[V:4] C8 | 
[V:1] c2B4A2 | 
[V:2] G8 | 
[V:3] z8 | 
[V:4] D8 | 
[V:1] c4d4 | 
[V:2] A4G4 | 
[V:3] z8 | 
[V:4] C2A,2B,4 | 
[V:1] G4A2c2- | 
[V:2] z2e6 | 
[V:3] z8 | 
[V:4] C8 | 
[V:1] c2B2A4 | 
[V:2] f3ec2d2 | 
[V:3] z8 | 
[V:4] F,8 | 
[V:1] G4F2A2- | 
[V:2] e2c4A2- | 
[V:3] z8 | 
[V:4] E,4F,4 | 
[V:1] AGF2E2z2 | 
[V:2] A2B2c2G2 | 
[V:3] z8 | 
[V:4] D,4C,4 | 
[V:1] D3EF2G2- | 
[V:2] z2c2A2G2 | 
[V:3] z8 | 
[V:4] B,,2C,2D,2E,2 | 
[V:1] G2c3AA2- | 
[V:2] c6f2 | 
[V:3] z8 | 
[V:4] C,4F,4 | 
[V:1] A2G2E3D | 
[V:2] ecd2B3A | 
[V:3] z8 | 
[V:4] A,2_B,2G,4 | 
[V:1] F8 ||  
[V:2] c8 ||  
[V:3] z8 ||  
[V:4] F,8 ||  
[V:1]  [K:C] [K:clef=treble][M:3/1]c6B2A4 | 
[V:2]  [K:C] [K:clef=treble-8][M:3/1]f8f4 | 
[V:3]  [K:C] [K:clef=treble-8][M:3/1]c12- | 
[V:4]  [K:C] [K:clef=bass][M:3/1]F,8F,4 | 
[V:1] G6F4E2 | 
[V:2] e4d8 | 
[V:3] c4B8 | 
[V:4] C,4D,8 | 
[V:1] G4A4F4 | 
[V:2] e4c2f3ga2 | 
[V:3] c12- | 
[V:4] C,4F,8 | 
[V:1] c4B2B4A2 | 
[V:2] g4f6e2 | 
[V:3] c4d8 | 
[V:4] E,4D,8 | 
[V:1] c8z4 | 
[V:2] g8g4 | 
[V:3] e8c4- | 
[V:4] C,12 | 
[V:1] A6B2c4 | 
[V:2] f2e2c8 | 
[V:3] c4z8 | 
[V:4] F,8A,4 | 
[V:1] B4e6d2 | 
[V:2] d4e4c4- | 
[V:3] g4g4e4 | 
[V:4] G,4C6B,2 | 
[V:1] c4B8 | 
[V:2] c4d8 | 
[V:3] f4g8 | 
[V:4] A,4G,8 | 
[V:1] B4c4A4 | 
[V:2] e8f4 | 
[V:3] z4z4c4- | 
[V:4] E,4C,4F,4 | 
[V:1] c4B6A2 | 
[V:2] e2f2g8 | 
[V:3] c4d4e4 | 
[V:4] A,4G,8 | 
[V:1] A4G8 | 
[V:2] c4z4e4 | 
[V:3] f4e4c4 | 
[V:4] F,4C,8 | 
[V:1] G4E2F4G2 | 
[V:2] e2e4d2d4 | 
[V:3] G4A4B4 | 
[V:4] C,6D,6 | 
[V:1] E4C8 | 
[V:2] G12 | 
[V:3] c4e8 | 
[V:4] C,12 | 
[V:1] z4z4G4 | 
[V:2] A4B4c3d | 
[V:3] c4g4e4 | 
[V:4] F,4E,8 | 
[V:1] G4E4C4 | 
[V:2] e4c4z4 | 
[V:3] c4z4g4 | 
[V:4] C,4z4C,4 | 
[V:1] z4c4B2A2- | 
[V:2] g4e4d4- | 
[V:3] e4g4f4 | 
[V:4] C,8D,4- | 
[V:1] A2F4G2A2F2 | 
[V:2] d2A2_B4A4- | 
[V:3] d8c4- | 
[V:4] D,2D,4E,2F,4 | 
[V:1] c3BA2F2G4 | 
[V:2] A2=B2c4G4 | 
[V:3] c4z4d4 | 
[V:4] F,2G,2A,4_B,4 | 
[V:1] A4z4c4 | 
[V:2] e8e4- | 
[V:3] c4A8 | 
[V:4] A,4C6B,2 | 
[V:1] B4A4c4- | 
[V:2] e2d2f8 | 
[V:3] B4c4A4 | 
[V:4] G,4F,8 | 
[V:1] c2B2G4E2F2 | 
[V:2] e6f2g4 | 
[V:3] G4c8 | 
[V:4] C,12- | 
[V:1] G8G4 | 
[V:2] c4B6A2 | 
[V:3] e4d8 | 
[V:4] C,4G,8 | 
[V:1] E2G2A2B2c2A2- | 
[V:2] c4A4F4 | 
[V:3] c12- | 
[V:4] C,4F,2G,2A,4 | 
[V:1] A2F2G2D2E3D | 
[V:2] A4G8 | 
[V:3] c12- | 
[V:4] F,4C,8 | 
[V:1] F12 |]  
[V:2] A6F2F4 |]  
[V:3] c12 |]  
[V:4] F,12 |]  



% FRACTION = 0.9375BUT SHOULD BE 0
